usr/share/icons/biglinux-icons-material/scalable/places/folder-bookmark.svg

<?xml version="1.0" encoding="UTF-8" standalone="no"?>
<svg
   width="24"
   height="24"
   viewBox="0 0 24 24"
   fill="none"
   version="1.1"
   id="svg10"
   sodipodi:docname="user-bookmarks.svg"
   inkscape:version="1.3 (0e150ed6c4, 2023-07-21)"
   inkscape:export-filename="../../../../../../../../../Imagens/Big Icons/user-bookmarks.pdf"
   inkscape:export-xdpi="96"
   inkscape:export-ydpi="96"
   xml:space="preserve"
   xmlns:inkscape="http://www.inkscape.org/namespaces/inkscape"
   xmlns:sodipodi="http://sodipodi.sourceforge.net/DTD/sodipodi-0.dtd"
   xmlns="http://www.w3.org/2000/svg"
   xmlns:svg="http://www.w3.org/2000/svg"><sodipodi:namedview
     id="namedview10"
     pagecolor="#ffffff"
     bordercolor="#000000"
     borderopacity="0.25"
     inkscape:showpageshadow="2"
     inkscape:pageopacity="0.0"
     inkscape:pagecheckerboard="0"
     inkscape:deskcolor="#d1d1d1"
     inkscape:zoom="8.4479168"
     inkscape:cx="12.784217"
     inkscape:cy="-1.5980271"
     inkscape:window-width="2560"
     inkscape:window-height="998"
     inkscape:window-x="0"
     inkscape:window-y="0"
     inkscape:window-maximized="1"
     inkscape:current-layer="svg10"><inkscape:page
       x="0"
       y="0"
       width="24"
       height="24"
       id="page1"
       margin="0"
       bleed="0" /></sodipodi:namedview><rect
     opacity="0.8125"
     x="1"
     y="1"
     width="22"
     height="22"
     rx="6.5999999"
     fill="url(#paint0_linear_211_410)"
     id="rect1"
     style="fill:url(#paint0_linear_211_410)" /><rect
     opacity="0.625"
     x="3"
     y="2.25"
     width="18"
     height="18"
     rx="4.4000001"
     fill="#777777"
     fill-opacity="0.875"
     id="rect2" /><rect
     x="3"
     y="3"
     width="18"
     height="18"
     rx="4.4000001"
     fill="#cccccc"
     id="rect3" /><path
     opacity="0.125"
     d="M 1,7.50781 C 1,5.84664 2.34664,4.5 4.00781,4.5 h 4.18267 c 1.07452,0 2.11632,0.36994 2.95012,1.04762 v 0 c 0.8339,0.67768 1.8756,1.04762 2.9502,1.04762 h 5.9014 C 21.6534,6.59524 23,7.94188 23,9.60305 V 15.5 c 0,3.6451 -2.9549,6.6 -6.6,6.6 H 7.6 C 3.95492,22.1 1,19.1451 1,15.5 Z"
     fill="url(#paint1_linear_211_410)"
     fill-opacity="0.875"
     id="path3"
     style="fill:url(#paint1_linear_211_410)" /><path
     opacity="0.875"
     d="M 1,8.40782 C 1,6.74665 2.34664,5.4 4.00781,5.4 h 4.18267 c 1.07452,0 2.11632,0.36994 2.95012,1.04762 v 0 c 0.8339,0.67768 1.8756,1.04762 2.9502,1.04762 h 5.9014 C 21.6534,7.49524 23,8.84188 23,10.5031 V 16.4 C 23,20.0451 20.0451,23 16.4,23 H 7.6 C 3.95492,23 1,20.0451 1,16.4 Z"
     fill="url(#paint2_linear_211_410)"
     id="path4"
     style="fill:url(#paint2_linear_211_410)" /><defs
     id="defs10"><linearGradient
       id="paint0_linear_211_410"
       x1="23"
       y1="0.99999899"
       x2="1"
       y2="12"
       gradientUnits="userSpaceOnUse"><stop
         stop-color="#E3C880"
         id="stop5" /><stop
         offset="1"
         stop-color="#6F5C38"
         id="stop6" /></linearGradient><linearGradient
       id="paint1_linear_211_410"
       x1="23"
       y1="9"
       x2="1.01236"
       y2="9.52141"
       gradientUnits="userSpaceOnUse"><stop
         stop-opacity="0.5"
         id="stop7" /><stop
         offset="1"
         id="stop8" /></linearGradient><linearGradient
       id="paint2_linear_211_410"
       x1="23"
       y1="5.4000001"
       x2="1.42949"
       y2="23.511499"
       gradientUnits="userSpaceOnUse"><stop
         stop-color="#FFE795"
         id="stop9" /><stop
         offset="1"
         stop-color="#7A653E"
         id="stop10" /></linearGradient><linearGradient
       x1="23"
       y1="0.99999899"
       x2="1"
       y2="12"
       gradientUnits="userSpaceOnUse"
       gradientTransform="scale(0.75)"
       spreadMethod="pad"
       id="linearGradient2"><stop
         style="stop-opacity:1;stop-color:#e3c880"
         offset="0"
         id="stop1" /><stop
         style="stop-opacity:1;stop-color:#6f5c38"
         offset="1"
         id="stop2" /></linearGradient><clipPath
       clipPathUnits="userSpaceOnUse"
       id="clipPath3"><path
         d="M 0,0 H 19 V 19 H 0 Z"
         id="path3-7" /></clipPath><linearGradient
       x1="23"
       y1="9"
       x2="1.01236"
       y2="9.52141"
       gradientUnits="userSpaceOnUse"
       gradientTransform="scale(0.75)"
       spreadMethod="pad"
       id="linearGradient8"><stop
         style="stop-opacity:0.43750668;stop-color:#000000"
         offset="0"
         id="stop7-7" /><stop
         style="stop-opacity:0.87501335;stop-color:#000000"
         offset="1"
         id="stop8-6" /></linearGradient><clipPath
       clipPathUnits="userSpaceOnUse"
       id="clipPath8"><path
         d="M 0,0 H 19 V 19 H 0 Z"
         id="path8" /></clipPath><linearGradient
       x1="23"
       y1="5.4000001"
       x2="1.42949"
       y2="23.511499"
       gradientUnits="userSpaceOnUse"
       gradientTransform="scale(0.75)"
       spreadMethod="pad"
       id="linearGradient10"><stop
         style="stop-opacity:1;stop-color:#ffe795"
         offset="0"
         id="stop9-4" /><stop
         style="stop-opacity:1;stop-color:#7a653e"
         offset="1"
         id="stop10-3" /></linearGradient><clipPath
       clipPathUnits="userSpaceOnUse"
       id="clipPath11"><path
         d="M 0,0 H 19 V 19 H 0 Z"
         id="path11" /></clipPath><clipPath
       clipPathUnits="userSpaceOnUse"
       id="clipPath11-4"><path
         d="M 0,0 H 19 V 19 H 0 Z"
         id="path11-0" /></clipPath></defs><g
     id="g1"
     inkscape:groupmode="layer"
     inkscape:label="1"
     transform="translate(34)" /><g
     id="g2"
     transform="translate(-33.651132)"><g
       opacity="0.15"
       id="g12"
       transform="translate(34)"><path
         d="m 11.145,14.504 c 0.113,0.359 -0.297,0.656 -0.602,0.434 L 8.695,13.602 C 8.559,13.5 8.375,13.5 8.238,13.598 L 6.383,14.93 C 6.078,15.148 5.668,14.852 5.785,14.492 L 6.488,12.32 C 6.539,12.16 6.484,11.984 6.348,11.887 L 4.512,10.535 C 4.207,10.312 4.363,9.828 4.742,9.828 h 2.281 c 0.168,0 0.317,-0.109 0.372,-0.269 L 8.109,7.395 c 0.121,-0.36 0.625,-0.36 0.743,0 l 0.707,2.167 c 0.054,0.161 0.203,0.27 0.371,0.27 l 2.281,0.016 c 0.379,0 0.531,0.484 0.227,0.703 l -1.844,1.344 c -0.137,0.101 -0.192,0.273 -0.141,0.433 z"
         style="fill:#1a1a1a;fill-opacity:1;fill-rule:nonzero;stroke:none"
         transform="scale(1.3333333)"
         clip-path="url(#clipPath11-4)"
         id="path12" /></g><path
       id="path13"
       d="M 49.557333,18.557333 C 49.713333,19.036 49.166666,19.432 48.754666,19.136 L 46.292,17.349333 c -0.177334,-0.130667 -0.428,-0.130667 -0.609334,0 l -2.469333,1.776 C 42.806666,19.416 42.26,19.016 42.412,18.541333 l 0.937333,-2.896 c 0.072,-0.213333 -0.0053,-0.448 -0.182667,-0.582667 L 40.713333,13.26 c -0.406666,-0.296 -0.192,-0.937334 0.308,-0.937334 l 3.041333,-0.0053 c 0.224,0 0.426667,-0.14 0.494667,-0.353333 L 45.516,9.0733331 c 0.156,-0.4746666 0.833333,-0.4746666 0.989333,0.00533 L 47.448,11.969333 c 0.068,0.213333 0.265333,0.358667 0.489333,0.358667 l 3.041333,0.016 c 0.505334,0.0053 0.714667,0.645333 0.308,0.942666 l -2.464,1.792 C 48.645333,15.208 48.568,15.442666 48.636,15.656 Z"
       style="fill:#ffcc00;fill-opacity:1;fill-rule:nonzero;stroke:none;stroke-width:1.33333" /></g></svg>

<svg xmlns="http://www.w3.org/2000/svg" xml:space="preserve" width="24" height="24" fill="none"><rect width="22" height="22" x="1" y="1" fill="url(#a)" opacity=".813" rx="6.6" style="fill:url(#a)"/><rect width="18" height="18" x="3" y="2.25" fill="#777" fill-opacity=".875" opacity=".625" rx="4.4"/><rect width="18" height="18" x="3" y="3" fill="#ccc" rx="4.4"/><path fill="url(#b)" fill-opacity=".875" d="M1 7.508A3.008 3.008 0 0 1 4.008 4.5H8.19c1.075 0 2.117.37 2.95 1.048a4.678 4.678 0 0 0 2.95 1.047h5.902A3.008 3.008 0 0 1 23 9.603V15.5a6.6 6.6 0 0 1-6.6 6.6H7.6A6.6 6.6 0 0 1 1 15.5Z" opacity=".125" style="fill:url(#b)"/><path fill="url(#c)" d="M1 8.408A3.008 3.008 0 0 1 4.008 5.4H8.19c1.075 0 2.117.37 2.95 1.048a4.678 4.678 0 0 0 2.95 1.047h5.902A3.008 3.008 0 0 1 23 10.503V16.4a6.6 6.6 0 0 1-6.6 6.6H7.6A6.6 6.6 0 0 1 1 16.4Z" opacity=".875" style="fill:url(#c)"/><defs><linearGradient id="a" x1="23" x2="1" y1="1" y2="12" gradientUnits="userSpaceOnUse"><stop stop-color="#E3C880"/><stop offset="1" stop-color="#6F5C38"/></linearGradient><linearGradient id="b" x1="23" x2="1.012" y1="9" y2="9.521" gradientUnits="userSpaceOnUse"><stop stop-opacity=".5"/><stop offset="1"/></linearGradient><linearGradient id="c" x1="23" x2="1.429" y1="5.4" y2="23.511" gradientUnits="userSpaceOnUse"><stop stop-color="#FFE795"/><stop offset="1" stop-color="#7A653E"/></linearGradient><clipPath id="d" clipPathUnits="userSpaceOnUse"><path d="M0 0h19v19H0Z"/></clipPath></defs><path d="M11.145 14.504a.39.39 0 0 1-.602.434l-1.848-1.336a.386.386 0 0 0-.457-.004L6.383 14.93a.39.39 0 0 1-.598-.438l.703-2.172a.387.387 0 0 0-.14-.433l-1.836-1.352a.391.391 0 0 1 .23-.707h2.281a.395.395 0 0 0 .372-.269l.714-2.164a.39.39 0 0 1 .743 0l.707 2.167c.054.161.203.27.371.27l2.281.016c.379 0 .531.484.227.703l-1.844 1.344a.388.388 0 0 0-.141.433z" clip-path="url(#d)" opacity=".15" style="fill:#1a1a1a;fill-opacity:1;fill-rule:nonzero;stroke:none" transform="matrix(1.33333 0 0 1.33333 .349 0)"/><path d="M49.557 18.557c.156.479-.39.875-.802.579l-2.463-1.787a.523.523 0 0 0-.61 0l-2.469 1.776c-.406.291-.953-.109-.801-.584l.937-2.896a.524.524 0 0 0-.182-.582l-2.454-1.803c-.406-.296-.192-.937.308-.937l3.042-.006c.224 0 .426-.14.494-.353l.959-2.89c.156-.475.833-.475.99.005l.942 2.89a.514.514 0 0 0 .49.359l3.04.016c.506.005.715.645.309.943l-2.464 1.792a.522.522 0 0 0-.187.577Z" style="fill:#fc0;fill-opacity:1;fill-rule:nonzero;stroke:none;stroke-width:1.33333" transform="translate(-33.651)"/></svg>
